Adwaita/scalable/status/touchpad-disabled-symbolic.svg

<?xml version="1.0" encoding="UTF-8"?>
<svg height="16px" viewBox="0 0 16 16" width="16px" xmlns="http://www.w3.org/2000/svg">
    <path d="m 1.53125 0.46875 l -1.0625 1.0625 l 14 14 l 1.0625 -1.0625 l -0.957031 -0.957031 c 0.269531 -0.453125 0.425781 -0.980469 0.425781 -1.542969 v -7.9375 c 0 -1.667969 -1.363281 -3.03125 -3.03125 -3.03125 h -8.9375 c -0.292969 0 -0.578125 0.042969 -0.84375 0.125 z m 2.53125 2.53125 h 7.90625 c 0.597656 0 1.03125 0.433594 1.03125 1.03125 v 5.96875 h -1.9375 z m -3.9375 0.1875 c -0.0820312 0.265625 -0.125 0.550781 -0.125 0.84375 v 7.9375 c 0 1.667969 1.363281 3.03125 3.03125 3.03125 h 8.90625 l -2 -2 h -1.9375 v -1.9375 l -1.0625 -1.0625 h -4.9375 v -4.9375 z m 1.875 7.8125 h 5 v 2 h -3.96875 c -0.597656 0 -1.03125 -0.433594 -1.03125 -1.03125 z m 10.0625 0 h 0.9375 v 0.9375 z m 0 0" fill="#2e3436"/>
</svg>

<svg xmlns="http://www.w3.org/2000/svg" width="16" height="16">
    <g fill="#2e3436">
        <path d="M3.031 1a3 3 0 00-1.576.455l1.55 1.55c.01 0 .017-.005.026-.005h8.938C12.565 3 13 3.435 13 4.03V10h-3l1 1h2v.969c0 .298-.11.555-.293.738l1.402 1.402c.55-.549.891-1.306.891-2.14V4.03A3.038 3.038 0 0011.969 1zM.29 2.762C.11 3.149 0 3.577 0 4.032v7.937A3.038 3.038 0 003.031 15h8.938c.173 0 .34-.025.506-.053L10.527 13H8v-2h.527l-1-1H2V4.473zM2 11h5v2H3.031C2.435 13 2 12.565 2 11.969z" style="line-height:normal;-inkscape-font-specification:Sans;text-indent:0;text-align:start;text-decoration-line:none;text-transform:none;marker:none" color="#bebebe" font-weight="400" font-family="Sans" overflow="visible"/>
        <path d="M1.531.469L.47 1.53l14 14 1.062-1.062z"/>
    </g>
</svg>
